modules/hawcons-stroke/icons/one-finger-tap-hold.svg

<?xml version="1.0" encoding="UTF-8" standalone="no"?>
<svg width="32px" height="32px" viewBox="0 0 32 32" version="1.1" xmlns="http://www.w3.org/2000/svg" xmlns:xlink="http://www.w3.org/1999/xlink" xmlns:sketch="http://www.bohemiancoding.com/sketch/ns">
    <!-- Generator: Sketch 3.0.3 (7891) - http://www.bohemiancoding.com/sketch -->
    <title>icon 41 one finger tap hold</title>
    <desc>Created with Sketch.</desc>
    <defs></defs>
    <g id="Page-1" stroke="none" stroke-width="1" fill="none" fill-rule="evenodd" sketch:type="MSPage">
        <g id="icon-41-one-finger-tap-hold" sketch:type="MSArtboardGroup" fill="#929292">
            <path d="M26,6 L25,6 L25,2.03544442 C23.3038529,2.27805923 22,3.73676395 22,5.5 C22,7.43299672 23.5670033,9 25.5,9 C27.4329967,9 29,7.43299672 29,5.5 C29,3.73676395 27.6961471,2.27805923 26,2.03544442 L26,2.03544442 L26,5 L28,5 L28,6 L26,6 L26,6 Z M12.5,10 C10.0147186,10 8,12.0135683 8,14.5050269 L8,31 L17,31 L17,14.5050269 C17,12.0169692 14.9802243,10 12.5,10 L12.5,10 Z M12.5,11 C10.5670034,11 9,12.5710144 9,14.5070349 L9,30 L16,30 L16,14.5070349 C16,12.570153 14.4290634,11 12.5,11 L12.5,11 Z M12.5,12 C11.1192881,12 10,13.1285541 10,14.5097752 L10,18 L15,18 L15,14.5097752 C15,13.1236646 13.8903379,12 12.5,12 L12.5,12 Z M12.5,13 C11.6715729,13 11,13.6785455 11,14.5008327 L11,17 L14,17 L14,14.5008327 C14,13.6719457 13.3342028,13 12.5,13 L12.5,13 Z M10,21 L10,22 L15,22 L15,21 L10,21 L10,21 Z M10,23 L10,24 L15,24 L15,23 L10,23 L10,23 Z M25.5,10 C27.9852815,10 30,7.9852815 30,5.5 C30,3.0147185 27.9852815,1 25.5,1 C23.0147185,1 21,3.0147185 21,5.5 C21,7.9852815 23.0147185,10 25.5,10 L25.5,10 Z M18,20.9809678 C19.8354094,19.4218311 21,17.096918 21,14.5 C21,9.80557939 17.1944206,6 12.5,6 C7.80557939,6 4,9.80557939 4,14.5 C4,17.096918 5.16459055,19.4218311 7,20.9809678 L7,19.5990687 C5.75882544,18.2609299 5,16.4690816 5,14.5 C5,10.3578642 8.35786417,7 12.5,7 C16.6421358,7 20,10.3578642 20,14.5 C20,16.4690816 19.2411746,18.2609299 18,19.5990687 L18,20.9809678 L18,20.9809678 L18,20.9809678 Z" id="one-finger-tap-hold" sketch:type="MSShapeGroup"></path>
        </g>
    </g>
</svg>

<svg width="32" height="32" viewBox="0 0 32 32" xmlns="http://www.w3.org/2000/svg"><path d="M26 6h-1V2.035a3.5 3.5 0 1 0 1 0V5h2v1h-2zm-13.5 4A4.5 4.5 0 0 0 8 14.505V31h9V14.505A4.506 4.506 0 0 0 12.5 10zm0 1A3.504 3.504 0 0 0 9 14.507V30h7V14.507A3.506 3.506 0 0 0 12.5 11zm0 1c-1.38 0-2.5 1.129-2.5 2.51V18h5v-3.49c0-1.386-1.11-2.51-2.5-2.51zm0 1c-.828 0-1.5.679-1.5 1.5V17h3v-2.5c0-.828-.666-1.5-1.5-1.5zM10 21v1h5v-1h-5zm0 2v1h5v-1h-5zm15.5-13a4.5 4.5 0 1 0 0-9 4.5 4.5 0 0 0 0 9zM18 20.981a8.5 8.5 0 1 0-11 0v-1.382a7.5 7.5 0 1 1 11 0v1.382z" fill="#929292" fill-rule="evenodd"/></svg>
